X: 1
T: The Kid On The Mountain
R: slip jig
M: 9/8
L: 1/8
K: Emin
EFE FEF G2 F| E3 cBA BGE| EFE FED G2 A| BAG FAG FED:|BGB AFA G2 D| GAB dge dBA| BGB AFA G2 A| BAG FAG FED:|gfg efe e2 f|gfg efg afd| gfg efe e2 a|bag fag fed:|eBB e2f g2f|eBB efg afd| eBB e2f g2a|bag fag fed:|edB dBA G2D|GAB dge dBA|edB dBA G2A|BAG FAG FED:|


Tune 52	Setting 12489

